X: 84
T: Where’s The Red Chook
B: canberra pickers and fiddlers
B: old time tunes update
B: tunes
L:1/8
Q: 1/4=100
K:D
V:1 
| "D"A2FG A2FG | AdAG FED2 \
|1,3 A,B,D2 D3E | "A7"F2E2- E2 \
:|2,4 A,B,D2 "(A7)"D3F | "D"E2D4 :|
|: D2 \
| "A7"E4 E2DE | "D"F2E2 D2FF \
|1,3 "G"G4 "(A7)"GFE2 | "D"F4 FE \
:|2,4 "G"GFED "A7"CB,C2 | "D"D4- D2 :|
% abcbook-tune_id 67a7d9ecaec577b4aa115b44
% abcbook-tune_composer_id 
% abcbook-link-0 https://www.youtube.com/watch?v=nVMnuv-YMr4
% abcbook-link-title-0 Where&#39;s the Red Chook
% abcbook-link-start-at-0 16
% abcbook-boost 0
% abcbook-difficulty 0
% abcbook-tags old time tunes
% abcbook-tablature 
% abcbook-transpose 7
% abcbook-tuning AEAE
% abcbook-lastupdated 1739067038058
% abcbook-src-url 
% abcbook-soundfonts 
% abcbook-repeats 1
%%MIDI transpose 7


